X:5
T:As Dolly sat milking her cow
%%VWML:SBG-1-2-563-0
F:http://www.vwml.org/record/SBG/1/2/563
Z:Original Sibelius transcriptions by M. & S. Graebe
M:4/4
I:linebreak $
K:C
V:1 treble nm="P1"
V:1
 G2 | c2 GE FE DC | G6 G2 | AG FE FG AF | E D3 z2 G2 | G2 AB G2 AB |$ c6 Bc | d2 ec B2 G^F | %8
 G6 G2 | d2 de f2 ed | e6 ee | ag fe f d2 e |$ cA z4 AB | cB AG FE DC | G2 G>G G2 EE | %15
 FG AB c2 cc | Bd z4 dd |$ ce z4 ee | eg z4 ag | fe dc e2 dc | d c3 z4 | z8 | %22

